Papirus/64x64/mimetypes/application-vnd.insync.link.drive.form.svg

<?xml version="1.0" encoding="UTF-8" standalone="no"?>
<svg xmlns="http://www.w3.org/2000/svg" height="64" width="64" version="1.1">
 <path style="fill:#13a553" d="m14.5 7c-1.385 0-2.5 1.115-2.5 2.5v45c0 1.385 1.115 2.5 2.5 2.5h35c1.385 0 2.5-1.115 2.5-2.5v-32.5l-13.75-1.25-1.25-13.75z"/>
 <path style="fill:#70c896" d="m37 7v12.5c0 1.3808 1.1193 2.5 2.5 2.5h12.5z"/>
 <path opacity="0" d="m14.5 7c-1.385 0-2.5 1.115-2.5 2.5v2c0-1.385 1.115-2.5 2.5-2.5h22.5v-2z" fill="#ffffff"/>
 <rect style="fill:#ffffff" width="17" height="3" x="28" y="30"/>
 <rect y="38" x="28" height="3" width="17" style="fill:#ffffff"/>
 <rect style="fill:#ffffff" width="17" height="3" x="28" y="46"/>
 <rect y="30" x="19" height="3" width="5" style="fill:#ffffff"/>
 <rect style="fill:#ffffff" width="5" height="3" x="19" y="38"/>
 <rect y="46" x="19" height="3" width="5" style="fill:#ffffff"/>
</svg>

<?xml version="1.0" encoding="UTF-8" standalone="no"?>
<svg xmlns="http://www.w3.org/2000/svg" height="64" width="64" version="1.1">
 <path d="M 14.5,7 C 13.115,7 12,8.115 12,9.5 V 54.5 C 12,55.885 13.115,57 14.5,57 H 49.5 C 50.885,57 52,55.885 52,54.5 V 22 L 38.25,20.75 37,7 Z" style="fill:#13a553"/>
 <path d="M 37,7 V 19.5 C 37,20.881 38.119,22 39.5,22 H 52 Z" style="fill:#70c795"/>
 <path d="M 14.5,7 C 13.115,7 12,8.115 12,9.5 V 10.5 C 12,9.115 13.115,8 14.5,8 H 37 V 7 Z" style="fill:#ffffff;opacity:0"/>
 <rect style="fill:#ffffff" height="3" width="19" y="35" x="25"/>
 <rect style="fill:#ffffff" height="3" width="19" y="40" x="25"/>
 <rect style="fill:#ffffff" height="3" width="19" y="45" x="25"/>
 <rect x="20" y="35" width="3" height="3" style="fill:#ffffff"/>
 <rect x="20" y="40" width="3" height="3" style="fill:#ffffff"/>
 <rect x="20" y="45" width="3" height="3" style="fill:#ffffff"/>
 <rect x="25" y="30" width="19" height="3" style="fill:#ffffff"/>
 <rect style="fill:#ffffff" height="3" width="3" y="30" x="20"/>
</svg>
